teeny/solid/bulb-off.svg

<svg width="15" height="15" viewBox="0 0 15 15" fill="none" xmlns="http://www.w3.org/2000/svg">
<path d="M7.49989 3C5.52968 3 3.85928 4.44872 3.58065 6.39913L3.5706 6.46949C3.41139 7.58398 3.73032 8.64543 4.35999 9.45895C4.74336 9.95426 4.9999 10.427 4.9999 10.9013V12.5C4.9999 12.7761 5.22376 13 5.4999 13H9.4999C9.77605 13 9.9999 12.7761 9.9999 12.5V10.9013C9.9999 10.427 10.2564 9.95423 10.6398 9.45893C11.2695 8.64541 11.5884 7.58397 11.4292 6.46949L11.4191 6.39914C11.1405 4.44873 9.4701 3 7.49989 3Z" fill="black"/>
<path d="M5.9999 15H8.9999V14H5.9999V15Z" fill="black"/>
</svg>

<svg viewBox="0 0 15 15" xmlns="http://www.w3.org/2000/svg"><g><path d="M7.49 3C5.51 3 3.84 4.44 3.57 6.39l-.02.07c-.16 1.11.15 2.17.78 2.98 .38.49.63.96.63 1.44v1.59c0 .27.22.5.5.5h4c.27 0 .5-.23.5-.5v-1.6c0-.48.25-.95.63-1.45 .62-.82.94-1.88.78-2.99l-.02-.08c-.28-1.96-1.95-3.4-3.92-3.4Z"/><path d="M5.99 15h3v-1h-3v1Z"/></g></svg>
